X:0
T:Melodic Minor Scales
L:1/4
M:10/4
K:FMin
"^F"       F2 GA Bc =d=e f2|f2 ed cB AG F2||
M:10/4
K:CMin
"^C"       C2 DE FG =A=B c2|c2 BA GF ED C2||
M:10/4
K:GMin
"^G"       G2 AB cd =e^f g2|g2 fe dc BA G2||
M:10/4
K:DMin
"^D"       D2 EF GA =B^c d2|d2 cB AG FE D2||
M:10/4
K:AMin
"^A"       A2 Bc de ^f^g a2|a2 gf ed cB A2||
M:10/4
K:EMin
"^E"       E2 FG AB ^c^d e2|e2 dc BA GF E2||
M:10/4
K:BMin
"^B"       B2 cd ef ^g^a b2|b2 ag fe dc B2||
M:10/4
K:F#Min
"^F sharp" F2 GA Bc ^d^e f2|f2 ed cB AG F2||
M:10/4
K:C#Min
"^C sharp" C2 DE FG ^A^B c2|c2 BA GF ED C2|]
